src/static/media/typescript.svg

<svg height="96" viewBox="0 0 96 96" width="96" xmlns="http://www.w3.org/2000/svg"><g fill="#fff" fill-rule="evenodd" transform="translate(32.782609 50)"><path d="m28.2981517 28.3831948 5.7487901-3.3285169c1.5133418 2.4714336 3.4802087 4.2868472 6.9598211 4.2868472 2.9254362 0 4.7909367-1.4626583 4.7909367-3.4799701 0-2.4207504-1.916303-3.2781915-5.1440497-4.6898087l-1.7646112-.7570287c-5.0939626-2.1681689-8.4730434-4.8914682-8.4730434-10.64085462 0-5.2953838 4.0345044-9.33012675 10.3387825-9.33012675 4.488507 0 7.7161342 1.56354799 10.0357565 5.6486163l-5.4971628 3.53005718c-1.2104346-2.16840756-2.5212817-3.02561002-4.5384743-3.02561002-2.0677565 0-3.3790808 1.31120482-3.3790808 3.02561002 0 2.11820109 1.3113243 2.97576129 4.3369343 4.28708549l1.7649689.7564323c6.0014907 2.5722038 9.3805712 5.1943754 9.3805712 11.0947379 0 6.3548424-4.9927152 9.8343356-11.7000743 9.8343356-6.5561441 0-10.7925466-3.1266188-12.8599454-7.2118062"/><path d="m.26327219.88497525v6.2935346h9.97624311v28.41589485l7.0601011.0005963v-28.41649115h10.0056598v-6.2935346z"/></g></svg>

<?xml version="1.0" encoding="UTF-8"?>
<svg width="96px" height="96px" viewBox="0 0 96 96" version="1.1" xmlns="http://www.w3.org/2000/svg" xmlns:xlink="http://www.w3.org/1999/xlink">
    <!-- Generator: Sketch 52.4 (67378) - http://www.bohemiancoding.com/sketch -->
    <title>typescript</title>
    <desc>Created with Sketch.</desc>
    <g id="typescript" stroke="none" stroke-width="1" fill="none" fill-rule="evenodd">
        <g id="Group" transform="translate(32.782609, 50.000000)" fill="#FFFFFF">
            <path d="M28.2981517,28.3831948 L34.0469418,25.0546779 C35.5602836,27.5261115 37.5271505,29.3415251 41.0067629,29.3415251 C43.9321991,29.3415251 45.7976996,27.8788668 45.7976996,25.861555 C45.7976996,23.4408046 43.8813966,22.5833635 40.6536499,21.1717463 L38.8890387,20.4147176 C33.7950761,18.2465487 30.4159953,15.5232494 30.4159953,9.77386298 C30.4159953,4.47847918 34.4504997,0.443736234 40.7547778,0.443736234 C45.2432848,0.443736234 48.470912,2.00728422 50.7905343,6.09235253 L45.2933715,9.62240971 C44.0829369,7.45400215 42.7720898,6.59679969 40.7548972,6.59679969 C38.6871407,6.59679969 37.3758164,7.90800451 37.3758164,9.62240971 C37.3758164,11.7406108 38.6871407,12.598171 41.7127507,13.9094952 L43.4777196,14.6659275 C49.4792103,17.2381313 52.8582908,19.8603029 52.8582908,25.7606654 C52.8582908,32.1155078 47.8655756,35.595001 41.1582165,35.595001 C34.6020724,35.595001 30.3656699,32.4683822 28.2982711,28.3831948" id="Path"></path>
            <polygon id="Path" points="0.263272192 0.884975245 0.263272192 7.17850985 10.2395153 7.17850985 10.2395153 35.5944047 17.2996164 35.595001 17.2996164 7.17850985 27.3052762 7.17850985 27.3052762 0.884975245"></polygon>
        </g>
    </g>
</svg>
